app/assets/img/work/ttl-kibera-sp.svg

<svg fill="none" height="20" viewBox="0 0 95 20" width="95" xmlns="http://www.w3.org/2000/svg"><path d="m4.954 8.729h.702c.65 0 1.118-.20367 1.404-.611l4.264-6.188c.234-.338.4983-.56767.793-.689.3033-.12133.6717-.182 1.105-.182h3.822l-5.616 7.657c-.1993.27733-.4073.507-.624.689s-.4377.33367-.663.455c.3293.12133.6283.2903.897.507.2773.208.5287.4897.754.845l5.72 8.788h-3.926c-.2513 0-.468-.0173-.65-.052-.1733-.0347-.325-.0867-.455-.156s-.2427-.1517-.338-.247c-.0953-.104-.1863-.221-.273-.351l-4.29-6.591c-.156-.2427-.35533-.4117-.598-.507-.234-.104-.55467-.156-.962-.156h-1.066v8.06h-4.394v-18.941h4.394zm18.5865-2.21v13.481h-4.03v-13.481zm.468-3.692c0 .32067-.065.624-.195.91-.13.27733-.3076.52433-.533.741-.2253.208-.4896.377-.793.507-.2946.12133-.611.182-.949.182-.3293 0-.637-.06067-.923-.182-.286-.13-.5416-.299-.767-.507-.2166-.21667-.39-.46367-.52-.741-.1213-.286-.182-.58933-.182-.91 0-.32933.0607-.637.182-.923.13-.286.3034-.53733.52-.754.2254-.216667.481-.385667.767-.507001.286-.121333.5937-.181999.923-.181999.338 0 .6544.060666.949.181999.3034.121334.5677.290334.793.507001.2254.21667.403.468.533.754s.195.59367.195.923zm3.0461 17.173v-18.941h6.968c1.3087 0 2.4223.12133 3.341.364s1.6683.585 2.249 1.027 1.001.97933 1.261 1.612c.2687.63267.403 1.339.403 2.119 0 .42467-.0607.83633-.182 1.235-.1213.39-.312.75833-.572 1.105s-.5937.663-1.001.949c-.4073.27733-.897.52-1.469.728 1.248.3033 2.171.7973 2.769 1.482.598.676.897 1.547.897 2.613 0 .806-.156 1.5557-.468 2.249s-.7713 1.3-1.378 1.82c-.598.5113-1.339.9143-2.223 1.209-.884.286-1.8937.429-3.029.429zm4.394-8.034v4.719h3.094c.5807 0 1.053-.0737 1.417-.221.3727-.1473.663-.338.871-.572s.351-.4983.429-.793.117-.5937.117-.897c0-.3467-.0477-.6587-.143-.936-.0867-.2773-.2427-.5113-.468-.702-.2167-.1907-.507-.338-.871-.442s-.8233-.156-1.378-.156zm0-2.938h2.288c.4853 0 .923-.03467 1.313-.104s.7193-.19067.988-.364c.2773-.17333.4853-.41167.624-.715.1473-.30333.221-.68467.221-1.144 0-.45067-.0563-.82333-.169-1.118-.1127-.30333-.286-.546-.52-.728s-.533-.312-.897-.39c-.3553-.078-.78-.117-1.274-.117h-2.574zm25.1225-7.969v3.38h-7.774v4.42h5.954v3.25h-5.954v4.511h7.774v3.38h-12.194v-18.941zm7.1612 11.934v7.007h-4.394v-18.941h6.162c1.3693 0 2.535.143 3.497.429.9706.27733 1.7593.66733 2.366 1.17.6153.50267 1.0616 1.09633 1.339 1.781.2773.68467.416 1.43.416 2.236 0 .61533-.0824 1.196-.247 1.742-.1647.546-.4117 1.053-.741 1.521-.3207.4593-.7194.871-1.196 1.235-.468.364-1.0097.663-1.625.897.2946.1473.5676.3293.819.546.26.2167.4853.481.676.793l4.03 6.591h-3.978c-.7367 0-1.2654-.2773-1.586-.832l-3.146-5.499c-.1387-.2427-.3034-.416-.494-.52-.182-.104-.442-.156-.78-.156zm0-3.029h1.768c.598 0 1.105-.07367 1.521-.221.4246-.156.7713-.36833 1.04-.637.2686-.26867.4636-.58067.585-.936.1213-.364.182-.754.182-1.17 0-.832-.273-1.482-.819-1.95-.5374-.468-1.3737-.702-2.509-.702h-1.768zm30.785 10.036h-3.406c-.3813 0-.6977-.0867-.949-.26-.2427-.182-.4117-.4117-.507-.689l-1.118-3.302h-7.202l-1.118 3.302c-.0867.2427-.2557.4637-.507.663-.2513.1907-.559.286-.923.286h-3.432l7.332-18.941h4.498zm-12.168-7.241h5.174l-1.742-5.187c-.1127-.32933-.247-.715-.403-1.157-.1473-.45067-.2947-.936-.442-1.456-.1387.52867-.2817 1.01833-.429 1.469s-.286.84067-.416 1.17z" fill="#121111"/></svg>

<svg width="95" height="20" viewBox="0 0 95 20" fill="none" xmlns="http://www.w3.org/2000/svg">
<path d="M4.954 8.729H5.656C6.306 8.729 6.774 8.52533 7.06 8.118L11.324 1.93C11.558 1.592 11.8223 1.36233 12.117 1.241C12.4203 1.11967 12.7887 1.059 13.222 1.059H17.044L11.428 8.716C11.2287 8.99333 11.0207 9.223 10.804 9.405C10.5873 9.587 10.3663 9.73867 10.141 9.86C10.4703 9.98133 10.7693 10.1503 11.038 10.367C11.3153 10.575 11.5667 10.8567 11.792 11.212L17.512 20H13.586C13.3347 20 13.118 19.9827 12.936 19.948C12.7627 19.9133 12.611 19.8613 12.481 19.792C12.351 19.7227 12.2383 19.6403 12.143 19.545C12.0477 19.441 11.9567 19.324 11.87 19.194L7.58 12.603C7.424 12.3603 7.22467 12.1913 6.982 12.096C6.748 11.992 6.42733 11.94 6.02 11.94H4.954V20H0.56V1.059H4.954V8.729ZM23.5405 6.519V20H19.5105V6.519H23.5405ZM24.0085 2.827C24.0085 3.14767 23.9435 3.451 23.8135 3.737C23.6835 4.01433 23.5059 4.26133 23.2805 4.478C23.0552 4.686 22.7909 4.855 22.4875 4.985C22.1929 5.10633 21.8765 5.167 21.5385 5.167C21.2092 5.167 20.9015 5.10633 20.6155 4.985C20.3295 4.855 20.0739 4.686 19.8485 4.478C19.6319 4.26133 19.4585 4.01433 19.3285 3.737C19.2072 3.451 19.1465 3.14767 19.1465 2.827C19.1465 2.49767 19.2072 2.19 19.3285 1.904C19.4585 1.618 19.6319 1.36667 19.8485 1.15C20.0739 0.933333 20.3295 0.764333 20.6155 0.642999C20.9015 0.521666 21.2092 0.461 21.5385 0.461C21.8765 0.461 22.1929 0.521666 22.4875 0.642999C22.7909 0.764333 23.0552 0.933333 23.2805 1.15C23.5059 1.36667 23.6835 1.618 23.8135 1.904C23.9435 2.19 24.0085 2.49767 24.0085 2.827ZM27.0546 20V1.059H34.0226C35.3313 1.059 36.4449 1.18033 37.3636 1.423C38.2823 1.66567 39.0319 2.008 39.6126 2.45C40.1933 2.892 40.6136 3.42933 40.8736 4.062C41.1423 4.69467 41.2766 5.401 41.2766 6.181C41.2766 6.60567 41.2159 7.01733 41.0946 7.416C40.9733 7.806 40.7826 8.17433 40.5226 8.521C40.2626 8.86767 39.9289 9.184 39.5216 9.47C39.1143 9.74733 38.6246 9.99 38.0526 10.198C39.3006 10.5013 40.2236 10.9953 40.8216 11.68C41.4196 12.356 41.7186 13.227 41.7186 14.293C41.7186 15.099 41.5626 15.8487 41.2506 16.542C40.9386 17.2353 40.4793 17.842 39.8726 18.362C39.2746 18.8733 38.5336 19.2763 37.6496 19.571C36.7656 19.857 35.7559 20 34.6206 20H27.0546ZM31.4486 11.966V16.685H34.5426C35.1233 16.685 35.5956 16.6113 35.9596 16.464C36.3323 16.3167 36.6226 16.126 36.8306 15.892C37.0386 15.658 37.1816 15.3937 37.2596 15.099C37.3376 14.8043 37.3766 14.5053 37.3766 14.202C37.3766 13.8553 37.3289 13.5433 37.2336 13.266C37.1469 12.9887 36.9909 12.7547 36.7656 12.564C36.5489 12.3733 36.2586 12.226 35.8946 12.122C35.5306 12.018 35.0713 11.966 34.5166 11.966H31.4486ZM31.4486 9.028H33.7366C34.2219 9.028 34.6596 8.99333 35.0496 8.924C35.4396 8.85467 35.7689 8.73333 36.0376 8.56C36.3149 8.38667 36.5229 8.14833 36.6616 7.845C36.8089 7.54167 36.8826 7.16033 36.8826 6.701C36.8826 6.25033 36.8263 5.87767 36.7136 5.583C36.6009 5.27967 36.4276 5.037 36.1936 4.855C35.9596 4.673 35.6606 4.543 35.2966 4.465C34.9413 4.387 34.5166 4.348 34.0226 4.348H31.4486V9.028ZM56.5711 1.059V4.439H48.7971V8.859H54.7511V12.109H48.7971V16.62H56.5711V20H44.3771V1.059H56.5711ZM63.7323 12.993V20H59.3383V1.059H65.5003C66.8696 1.059 68.0353 1.202 68.9973 1.488C69.9679 1.76533 70.7566 2.15533 71.3633 2.658C71.9786 3.16067 72.4249 3.75433 72.7023 4.439C72.9796 5.12367 73.1183 5.869 73.1183 6.675C73.1183 7.29033 73.0359 7.871 72.8713 8.417C72.7066 8.963 72.4596 9.47 72.1303 9.938C71.8096 10.3973 71.4109 10.809 70.9343 11.173C70.4663 11.537 69.9246 11.836 69.3093 12.07C69.6039 12.2173 69.8769 12.3993 70.1283 12.616C70.3883 12.8327 70.6136 13.097 70.8043 13.409L74.8343 20H70.8563C70.1196 20 69.5909 19.7227 69.2703 19.168L66.1243 13.669C65.9856 13.4263 65.8209 13.253 65.6303 13.149C65.4483 13.045 65.1883 12.993 64.8503 12.993H63.7323ZM63.7323 9.964H65.5003C66.0983 9.964 66.6053 9.89033 67.0213 9.743C67.4459 9.587 67.7926 9.37467 68.0613 9.106C68.3299 8.83733 68.5249 8.52533 68.6463 8.17C68.7676 7.806 68.8283 7.416 68.8283 7C68.8283 6.168 68.5553 5.518 68.0093 5.05C67.4719 4.582 66.6356 4.348 65.5003 4.348H63.7323V9.964ZM94.5173 20H91.1113C90.73 20 90.4136 19.9133 90.1623 19.74C89.9196 19.558 89.7506 19.3283 89.6553 19.051L88.5373 15.749H81.3353L80.2173 19.051C80.1306 19.2937 79.9616 19.5147 79.7103 19.714C79.459 19.9047 79.1513 20 78.7873 20H75.3553L82.6873 1.059H87.1853L94.5173 20ZM82.3493 12.759H87.5233L85.7813 7.572C85.6686 7.24267 85.5343 6.857 85.3783 6.415C85.231 5.96433 85.0836 5.479 84.9363 4.959C84.7976 5.48767 84.6546 5.97733 84.5073 6.428C84.36 6.87867 84.2213 7.26867 84.0913 7.598L82.3493 12.759Z" fill="#121111"/>
</svg>
